!!!COM: Schiørring, Niels
!!!CDT: 1743-1798
!!!OPR@@DA: Choral-Bog
!!!ONM: 51
!!!OTL@@DA: Jeſu! dine dybe Vunder Den brugelige Mel.
**kern	**fb	**kern	**kern	**kern	**kern	**kern	**kern	**kern
*part6	*part6	*part6	*part5	*part5	*part4	*part3	*part2	*part1
*staff8	*	*staff7	*staff6	*staff5	*staff4	*staff3	*staff2	*staff1
*clefF4	*	*clefC1	*clefF4	*clefC1	*clefF4	*clefC4	*clefC3	*clefC1
*mclefF4	*	*mclefG2	*mclefF4	*mclefG2	*mclefF4	*mclefGv2	*mclefG2	*mclefG2
*k[b-]	*	*k[b-]	*k[b-]	*k[b-]	*k[b-]	*k[b-]	*k[b-]	*k[b-]
*F:	*	*F:	*F:	*F:	*F:	*F:	*F:	*F:
*M4/4	*	*M4/4	*M4/4	*M4/4	*M4/4	*M4/4	*M4/4	*M4/4
*met(c)	*	*met(c)	*met(c)	*met(c)	*met(c)	*met(c)	*met(c)	*met(c)
*MM180	*	*MM180	*MM180	*MM180	*MM180	*MM180	*MM180	*MM180
=1	=1	=1	=1	=1	=1	=1	=1	=1
*	*	*	*^	*^	*	*	*	*
1D	.	2dd	1A	1D	2dd	2f	2D	2A	2f	2dd
.	.	2a	.	.	2a	2f	2D	2d	2f	2a
=2	=2	=2	=2	=2	=2	=2	=2	=2	=2	=2
2F#X	6	2a	2A	2F#X	2a	2d	2F#X	2A	2d	2a
*	*	*	*	*	*	*^	*	*	*	*
2D	7 #	2cc	2A	2D	2cc	2d	2f#X/	2D	2F#X	2d	2cc
=3	=3	=3	=3	=3	=3	=3	=3	=3	=3	=3	=3
2G	.	2b-	2G	2G	2b-	2d	2g/	2G	2G	2d	2b-
*	*	*	*	*	*	*v	*v	*	*	*	*
2Fni	6	2a	2d	2Fni	2a	[2d	2Fni	2d	[2d	2a
=4	=4	=4	=4	=4	=4	=4	=4	=4	=4	=4
2E	7	1g	1G	2E	1g	2d]	2E	1G	(2d]	1g
2E-X	#6\	.	.	2E-X	.	2c#X	2E-X	.	2c#X)	.
=5	=5	=5	=5	=5	=5	=5	=5	=5	=5	=5
1D	#	1f#X	1A	1D	1f#X	1d	1D	1A	1d	1f#X
=6	=6	=6	=6	=6	=6	=6	=6	=6	=6	=6
2C	#4|	2a	2F#X	2C	2a	1d	2C	2d	2f#X	2a
2BB-	6	2b-	[2G	2BB-	2b-	.	2BB-	2d	[2g	2b-
=7	=7	=7	=7	=7	=7	=7	=7	=7	=7	=7
2AA	7	2cc	4G]	2AA	2cc	2c	2AA	2c	(4g]	2cc
.	#6\	.	4F#X	.	.	.	.	.	4f#X)	.
2GG	.	2b-	[2G	2GG	2b-	2d	2GG	2d	[2g	2b-
=8	=8	=8	=8	=8	=8	=8	=8	=8	=8	=8
2C	6 5 -	2a	2G]	2C	2a	2e-X	2C	2e-X	2g]	2a
2D	#	2a	2F#X	2D	2a	2d	2D	2d	2f#X	2a
=9	=9	=9	=9	=9	=9	=9	=9	=9	=9	=9
*	*	*	*	*	*	*^	*	*	*	*
1GG	.	1g	1G	1GG	1g	1d	1B-\	1GG	1B-	1g	1g
=10:|!	=10:|!	=10:|!	=10:|!	=10:|!	=10:|!	=10:|!	=10:|!	=10:|!	=10:|!	=10:|!	=10:|!
2B-	.	2dd	1ryy	2B-	2f	2b-	1r	2B-	2B-	2f	2dd
2G	.	2dd	.	2G	2g	2b-	.	2G	2B-	2g	2dd
=11	=11	=11	=11	=11	=11	=11	=11	=11	=11	=11	=11
2D	6	2ff	1ryy	2D	2f	2b-	1r	2D	2B-	2f	2ff
2E-X	.	2b-	.	2E-X	2g	[2b-	.	2E-X	[2B-	2g	2b-
=12	=12	=12	=12	=12	=12	=12	=12	=12	=12	=12	=12
*	*	*	*	*	*	*	*	*^	*	*	*
2F	6 4	2dd	1ryy	2F	1f	2b-]	1r	2F	2F	2B-]	2f	2dd
2FF	5 3	2cc	.	2FF	.	2a	.	2F	2FF	2A	2f	2cc
=13	=13	=13	=13	=13	=13	=13	=13	=13	=13	=13	=13	=13
1BB-	.	1b-	1ryy	1BB-	1d	1f	1r	1BB-	1r	1B-	1d	1b-
=14	=14	=14	=14	=14	=14	=14	=14	=14	=14	=14	=14	=14
2F	.	2a	1ryy	2F	2c	2f	1r	2F	1r	2c	2f	2a
2D	.	2a	.	2D	2d	2f	.	2D	.	2d	2f	2a
=15	=15	=15	=15	=15	=15	=15	=15	=15	=15	=15	=15	=15
2AA	6	2cc	1ryy	2AA	2c	2f	1r	2AA	1r	2c	2f	2cc
2BB-	.	2f	.	2BB-	2d	[2f	.	2BB-	.	2d	[2f	2f
=16	=16	=16	=16	=16	=16	=16	=16	=16	=16	=16	=16	=16
2C	6 4	2a	2c	1C	2a	2f]	1r	2C	2C	2c	2f]	2a
2CC	5 3	2g	2B-	.	2g	2e	.	2C	2CC	2B-	2e	2g
=17	=17	=17	=17	=17	=17	=17	=17	=17	=17	=17	=17	=17
1FF	.	1f	1A	1F	1f	1c	1r	1F	1FF	1A	1f	1f
*	*	*	*	*	*	*	*	*v	*v	*	*	*
=18	=18	=18	=18	=18	=18	=18	=18	=18	=18	=18	=18
2A	6	2cc	2c	2A	2cc	2f	1r	2A	2c	2f	2cc
[2F	.	2cc	2c	[2F	2cc	2a	.	[2F	2A	2a	2cc
=19	=19	=19	=19	=19	=19	=19	=19	=19	=19	=19	=19
2F]	nr4	2dd	2Bn	2F]	2dd	2g	1r	2F]	2B	2g	2dd
2E	#6\	2ee	2c#X	2E	2ee	2g	.	2E	2c#X	2g	2ee
=20	=20	=20	=20	=20	=20	=20	=20	=20	=20	=20	=20
2D	.	2ff	2d	2D	2ff	2a	1r	2D	2d	2a	2ff
2B-	.	2ff	[2d	2B-Xi	2ff	2b-Xi	.	2B-	[2d	2b-	2ff
=21	=21	=21	=21	=21	=21	=21	=21	=21	=21	=21	=21
2G	6 5	1ee	2d]	2G	1ee	2b-	1r	(2G	(2d]	(2b-	1ee
2A	#	.	2c#X	2A	.	2a	.	2A)	2c#X)	2a)	.
=22	=22	=22	=22	=22	=22	=22	=22	=22	=22	=22	=22
1D	.	1dd	1d	1D	1dd	1f	1a\	1D	1d	1f	1dd
=23	=23	=23	=23	=23	=23	=23	=23	=23	=23	=23	=23
2B-	6	2g	2B-	2B-	2g	2d	1r	2B-	2d	2d	2g
2G	.	2g	2B-	2G	2g	2d	.	2G	2B-	2d	2g
=24	=24	=24	=24	=24	=24	=24	=24	=24	=24	=24	=24
2F#X	6	2a	2d	2F#X	2a	2d	1r	2F#X	2d	2d	2a
2G	.	2b-	2B-	2G	2b-	2d	.	2G	2d	2g	2b-
=25	=25	=25	=25	=25	=25	=25	=25	=25	=25	=25	=25
2E-X	6	2cc	2G	2E-X	2cc	2c	1r	2E-X	2c	2g	2cc
2D	6 4	2b-	[2G	2D	2b-	2d	.	2D	2d	[2g	2b-
=26	=26	=26	=26	=26	=26	=26	=26	=26	=26	=26	=26
2C	6 5 -	1a	2G]	2C	1a	2e-X	1r	(2C	(2e-X	(2g]	1a
2D	#	.	2F#X	2D	.	2d	.	2D)	2d)	2f#X)	.
=27	=27	=27	=27	=27	=27	=27	=27	=27	=27	=27	=27
1GG	.	1g	1G	1GG	1g	1d	1B-\	1GG	1B-	1g	1g
*	*	*	*v	*v	*	*	*	*	*	*	*
*	*	*	*	*v	*v	*v	*	*	*	*
==	==	==	==	==	==	==	==	==
*-	*-	*-	*-	*-	*-	*-	*-	*-
!!!system-decoration: {(s1,s2,s3,s4)}{(s5,s6)}{(s7,s8)}
!!!RDF**kern: i = editorial accidental
!!!RDF**kern: > = above
!!!RDF**kern: < = below
!!!AGN: chorale
!!!EED: Derek Remeš
!!!EED2: Victor Phan
!!!END: 2023/11/28
!!!ENC: Wolfgang Drescher
!!!EEV: 2023/12/08
!!!title: @{ONM}. @{OTL}